X: 33
T: No_13_Song_of_the_Guests_in_Their_Canoes.krn
N: Derived from No_13_Song_of_the_Guests_in_Their_Canoes.krn
%%abc-version 2.0
%%abcx-abcm2ps-target-version 5.9.1 (29 Sep 2008)
%%abc-creator hum2abc beta
%%abcx-conversion-date 2019/03/15 08:36:13
%%humdrum-veritas 3593226073
%%humdrum-veritas-data 4033129119
%%linebreak <none>
%%barnumbers 0
L: 1/8
M: 3/4
%%staves {1 2}
V: 1 clef=bass
V: 2 clef=bass
K: F
[V:1] [K:clef=bass][M:3/4].('C4A,2 ||  
[V:2] [K:clef=bass][M:3/4]G,,G,, G,,G,, G,,G,, ||  
[V:1] [M:2/4]CCA,2 | 
[V:2] [M:2/4]G,,G,, G,,G,, | 
[V:1] C3A, | 
[V:2] G,,G,, G,,G,, | 
[V:1] F,) z.('C2 | 
[V:2] G,,G,, G,,G,, | 
[V:1] CC A,F, ||  
[V:2] G,,G,, G,,G,, ||  
[V:1] [M:3/4]A,2F,3C ||  
[V:2] [M:3/4]G,,G,, G,,G,, G,,G,, ||  
[V:1] [M:2/4]A,2F,2 ||  
[V:2] [M:2/4]G,,G,, G,,G,, ||  
[V:1] [M:3/4]A,2F,A, F,A, | 
[V:2] [M:3/4]G,,G,, G,,G,, G,,G,, | 
[V:1] A,3F,)z2 | 
[V:2] G,,G,, G,,G,, G,,G,, | 
[V:1] .('CA, F,A, F,A, | 
[V:2] G,,G,, G,,G,, G,,G,, | 
[V:1] A,2F,2z A, ||  
[V:2] G,,G,, G,,G,, G,,G,, ||  
[V:1] [M:3/8]A,2F,/) z/ ||  
[V:2] [M:3/8]G,,G,,G,, ||  
[V:1] [M:3/4].('A,2F,A, A,A, | 
[V:2] [M:3/4]G,,G,, G,,G,, G,,G,, | 
[V:1] A,2F,2)z2 | 
[V:2] G,,G,, G,,G,, G,,G,, | 
[V:1] .('CA, A,A, F,A, [I:setbarnb 16]||  
[V:2] G,,G,, G,,G,, G,,G,, ||  
[V:1] [M:2/4]A,2F,) z ||  
[V:2] [M:2/4]G,,G,, G,,G,, ||  
[V:1] [M:3/4].('A,3/A,/A,2F,2 | 
[V:2] [M:3/4]G,,G,, G,,G,, G,,G,, | 
[V:1] A,2F,A, F,A, | 
[V:2] G,,G,, G,,G,, G,,G,, | 
[V:1] A,2)z4 :|]  
[V:2] G,,G,, G,,G,, G,,G,, :|]  
[V:1] .('CA, A,A, F,A, ||  
[V:2] G,,G,, G,,G,, G,,G,, ||  
[V:1] [M:2/4]A,2)z2 | 
[V:2] [M:2/4]G,,G,, G,,G,, | 
[V:1] z2z2 ||  
[V:2] G,,G,, G,,G,, ||  
[V:1] [M:3/4].('C3A,/C/ (3CA,C ||  
[V:2] [M:3/4]G,,G,, G,,G,, G,,G,, ||  
[V:1] [M:2/4]C2A,) z | 
[V:2] [M:2/4]G,,G,, G,,G,, | 
[V:1] .('C3/C/ (3CA,A, ||  
[V:2] G,,G,, G,,G,, ||  
[V:1] [M:3/4]A,F,- F,C A,/F,3/ | 
[V:2] [M:3/4]G,,G,, G,,G,, G,,G,, | 
[V:1] A,2F,A, A,A, | 
[V:2] G,,G,, G,,G,, G,,G,, | 
[V:1] A,4)z2 |]  
[V:2] G,,G,, G,,G,, G,,G,, |]  



